X:4
T:Loch Madey
R:reel
D:John Campbell, Cape Breton Violin Music (1975-2006)
B:Wm Morrison Collection,1812
Z:Paul Stewart Cranford (P.S.C.), <http://www.cranfordpub.com>
L:1/8
M:C|
Q:333
K:D
A2 FA DAFA|BDAF BEEd|A2 FA DAFA|[1(B/c/d) Ad FDDB:|[2(B/c/d) Ad FDD||
||A|d2 fd AdFA|Adfa geef|d2 fd AdFA|ceAg fddA|
d2 fd AdFA|Adfa geeg|f<dec dBAF|ABAf ecdB|]
